X:181
T:By a Broom. JGi.181
T:Buy a Broom. JGi.181
T:O Du Lieber Augustin,aka. JGi.181
M:3/8
L:1/8
Q:3/8=50
S:Joshua Gibbons MS,1823,Tealby,Lincs.
N:Popular song in the 1830s
N:Similar to German folk song “O du lieber Augustine”
R:waltz
O:Tealby,Lincolnshire
Z:VMP/R.Greig, 2009
K:G
G/B/|dd/e/d/c/|BGG|ADD|BGG|dd/e/d/c/|BGG|ADD|G2:|
|:G|ADD|BGG|ADD|BGG|dd/e/d/c/|BGG|ADD|G2:|
|:G2|B<dz|G/B/dz|Bcd|dd/e/d/c/|BGG|ADD|G2|]

